X: 490
T: THE DOWNHILL OF LIFE
B: O'Neill's 490
Z: 1999 by John Chambers <jc@trillian.mit.edu>
N: "Slow"
N: Collected by "F.O'Neill"
M: 6/8
L: 1/8
K:G
((3d/e/f) \
| gGD G>AB | def g2f/e/ | ded BGA | E3 F2((3d/e/f) |
| gGD G>AB | def g2f/e/ | ded BGA | G3 G2 ||
|| d \
| dBG gfg | afd g2b/a/ | gfe dBG | A3- A2 B/c/ |
| dBG gfg | afd g2f/e/ | dBG DEF | G3 G2 |]


